packages/icons/src/aws-kms.svg

<svg fill="none" viewBox="0 0 28 28" xmlns="http://www.w3.org/2000/svg" xmlns:xlink="http://www.w3.org/1999/xlink"><linearGradient id="a" gradientUnits="userSpaceOnUse" x1="-5.79758" x2="33.8004" y1="33.801" y2="-5.79702"><stop offset="0" stop-color="#bd0816"/><stop offset="1" stop-color="#ff5252"/></linearGradient><path d="m28 0h-28v28h28z" fill="url(#a)"/><g fill="#fff"><path d="m9.14671 23.1476c-.05301-.0001-.10539-.0114-.15367-.0333s-.09134-.0538-.12633-.0936l-1.30666-1.4934c-.06003-.068-.09321-.1556-.09334-.2464v-.9632l-1.01173-1.0117c-.03499-.0347-.06277-.076-.08172-.1215s-.02871-.0943-.02871-.1436.00976-.0981.02871-.1435c.01895-.0455.04673-.0868.08172-.1215l1.01173-1.008v-.4368l-1.01173-1.0118c-.03499-.0347-.06277-.076-.08172-.1215s-.02871-.0943-.02871-.1435c0-.0493.00976-.0981.02871-.1436s.04673-.0868.08172-.1215l1.01173-1.008v-.9035c-.89022-.3405-1.65421-.9466-2.18846-1.7359-.53424-.7893-.8129-1.7238-.79821-2.67688.00743-1.23767.50622-2.42171 1.38664-3.29163s2.07036-1.35446 3.30803-1.34703c1.23769.00742 2.42169.50621 3.29159 1.38663.87.88042 1.3545 2.07036 1.3471 3.30803.0035.94308-.2805 1.86498-.814 2.64258-.5336.7777-1.2915 1.3744-2.1727 1.7105v7.7803c0 .0539-.0117.1072-.0342.1561-.0226.049-.0555.0925-.0965.1276l-1.30662 1.12c-.06763.0578-.15369.0896-.24267.0896zm-.93333-2.0085.97067 1.12.89595-.7766v-7.8736c-.0037-.0823.0199-.1636.0671-.2311.0473-.0676.1156-.1176.1943-.1422.8884-.2861 1.6455-.88 2.1348-1.6749s.6786-1.73832.5338-2.6604c-.1448-.92207-.6142-1.76212-1.3235-2.36877s-1.612-.94001-2.54539-.94001c-.93337 0-1.83605.33336-2.54539.94001s-1.17869 1.4467-1.32347 2.36877c-.14479.92208.04452 1.8655.53379 2.6604.48928.7949 1.24635 1.3888 2.13481 1.6749.08075.0226.15155.0717.20099.1394s.07464.1501.07154.2339v1.3254c.00028.0491-.00913.0978-.02771.1433s-.04596.0868-.08056.1217l-.85493.855.85493.8549c.0346.0349.06198.0762.08056.1217s.02799.0942.02771.1434v.7466c-.00041.098-.0393.1918-.10827.2614l-.85493.8586.85493.855c.0346.0348.06198.0762.08056.1217s.02799.0942.02771.1433zm.93333-11.24484c-.33227 0-.65708-.09853-.93336-.28313-.27627-.18461-.4916-.44699-.61876-.75397-.12715-.30698-.16042-.64477-.0956-.97066.06483-.32588.22483-.62523.45978-.86018.23496-.23496.5343-.39496.86019-.45978.32589-.06483.66368-.03156.97066.0956.30698.12715.56938.34248.75398.61876.1846.27627.2831.60108.2831.93336-.001.44526-.1783.872-.4931 1.18685-.3149.31484-.74163.49216-1.18689.49315zm0-2.61334c-.18459 0-.36504.05474-.51853.1573-.15349.10255-.27311.24832-.34375.41886-.07065.17055-.08913.35821-.05312.53926.03602.18105.12491.34735.25544.47788s.29683.21942.47788.25544c.18105.03601.36871.01753.53925-.05312.17055-.07064.31632-.19027.41887-.34375.10255-.15349.15725-.33394.15725-.51853 0-.24754-.09829-.48494-.27332-.65997s-.41243-.27337-.65997-.27337z"/><path d="m22.8071 20.5348h-11.2336v-.7467h11.2v-8.2133h-8.2133v-.7467h8.2469c.1868-.001.3665.0718.5001.2025.1335.1307.21.3088.213.4957v8.3104c-.003.1868-.0795.3649-.213.4956-.1336.1307-.3133.2035-.5001.2025z"/><path d="m12.8801 16.9867c-.2954 0-.5841-.0876-.8297-.2517s-.437-.3973-.55-.6702-.1426-.5731-.085-.8628.1999-.5558.4087-.7646c.2089-.2089.4749-.3511.7646-.4087s.59-.0281.8628.085c.2729.113.5061.3044.6702.55s.2517.5343.2517.8296c0 .3961-.1573.7759-.4374 1.056-.2801.28-.6599.4374-1.0559.4374zm0-2.24c-.1477 0-.2921.0438-.4149.1258s-.2185.1987-.275.3351-.0713.2866-.0425.4314.1.2779.2044.3823.2374.1755.3823.2044c.1448.0288.295.014.4314-.0425s.253-.1522.3351-.275c.082-.1228.1258-.2672.1258-.4149 0-.198-.0786-.3879-.2187-.5279-.14-.1401-.3299-.2187-.5279-.2187z"/><path d="m16.6135 16.9867c-.2954 0-.5841-.0876-.8297-.2517s-.437-.3973-.55-.6702-.1426-.5731-.085-.8628.1999-.5558.4087-.7646c.2089-.2089.4749-.3511.7646-.4087s.59-.0281.8628.085c.2729.113.5061.3044.6702.55s.2517.5343.2517.8296c0 .3961-.1574.7759-.4374 1.056-.2801.28-.6599.4374-1.0559.4374zm0-2.24c-.1477 0-.2921.0438-.4149.1258s-.2185.1987-.275.3351-.0713.2866-.0425.4314.1.2779.2044.3823.2374.1755.3823.2044c.1448.0288.295.014.4314-.0425s.253-.1522.3351-.275c.082-.1228.1258-.2672.1258-.4149 0-.198-.0786-.3879-.2187-.5279-.14-.1401-.3299-.2187-.5279-.2187z"/><path d="m14.1868 17.9199h-2.6133v.7467h2.6133z"/><path d="m17.92 17.9199h-2.6134v.7467h2.6134z"/><path d="m21.6534 17.9199h-2.6134v.7467h2.6134z"/></g></svg>

<svg viewBox="0 0 28 28" fill="none" xmlns="http://www.w3.org/2000/svg" style="border-radius: 8px;">
<path d="M28 0H0V28H28V0Z" fill="url(#paint0_linear)"/>
<path d="M9.14671 23.1476C9.0937 23.1475 9.04132 23.1362 8.99304 23.1143C8.94476 23.0924 8.9017 23.0605 8.86671 23.0207L7.56005 21.5273C7.50002 21.4593 7.46684 21.3717 7.46671 21.2809V20.3177L6.45498 19.306C6.41999 19.2713 6.39221 19.23 6.37326 19.1845C6.35431 19.139 6.34455 19.0902 6.34455 19.0409C6.34455 18.9916 6.35431 18.9428 6.37326 18.8974C6.39221 18.8519 6.41999 18.8106 6.45498 18.7759L7.46671 17.7679V17.3311L6.45498 16.3193C6.41999 16.2846 6.39221 16.2433 6.37326 16.1978C6.35431 16.1523 6.34455 16.1035 6.34455 16.0543C6.34455 16.005 6.35431 15.9562 6.37326 15.9107C6.39221 15.8652 6.41999 15.8239 6.45498 15.7892L7.46671 14.7812V13.8777C6.57649 13.5372 5.8125 12.9311 5.27825 12.1418C4.74401 11.3525 4.46535 10.418 4.48004 9.46492C4.48747 8.22725 4.98626 7.04321 5.86668 6.17329C6.7471 5.30337 7.93704 4.81883 9.17471 4.82626C10.4124 4.83368 11.5964 5.33247 12.4663 6.21289C13.3363 7.09331 13.8208 8.28325 13.8134 9.52092C13.8169 10.464 13.5329 11.3859 12.9994 12.1635C12.4658 12.9412 11.7079 13.5379 10.8267 13.874V21.6543C10.8267 21.7082 10.815 21.7615 10.7925 21.8104C10.7699 21.8594 10.737 21.9029 10.696 21.938L9.38938 23.058C9.32175 23.1158 9.23569 23.1476 9.14671 23.1476ZM8.21338 21.1391L9.18405 22.2591L10.08 21.4825V13.6089C10.0763 13.5266 10.0999 13.4453 10.1471 13.3778C10.1944 13.3102 10.2627 13.2602 10.3414 13.2356C11.2298 12.9495 11.9869 12.3556 12.4762 11.5607C12.9655 10.7658 13.1548 9.82238 13.01 8.9003C12.8652 7.97823 12.3958 7.13818 11.6865 6.53153C10.9772 5.92488 10.0745 5.59152 9.14111 5.59152C8.20774 5.59152 7.30506 5.92488 6.59572 6.53153C5.88638 7.13818 5.41703 7.97823 5.27225 8.9003C5.12746 9.82238 5.31677 10.7658 5.80604 11.5607C6.29532 12.3556 7.05239 12.9495 7.94085 13.2356C8.0216 13.2582 8.0924 13.3073 8.14184 13.375C8.19128 13.4427 8.21648 13.5251 8.21338 13.6089V14.9343C8.21366 14.9834 8.20425 15.0321 8.18567 15.0776C8.16709 15.1231 8.13971 15.1644 8.10511 15.1993L7.25018 16.0543L8.10511 16.9092C8.13971 16.9441 8.16709 16.9854 8.18567 17.0309C8.20425 17.0764 8.21366 17.1251 8.21338 17.1743V17.9209C8.21297 18.0189 8.17408 18.1127 8.10511 18.1823L7.25018 19.0409L8.10511 19.8959C8.13971 19.9307 8.16709 19.9721 8.18567 20.0176C8.20425 20.0631 8.21366 20.1118 8.21338 20.1609V21.1391ZM9.14671 9.89426C8.81444 9.89426 8.48963 9.79573 8.21335 9.61113C7.93708 9.42652 7.72175 9.16414 7.59459 8.85716C7.46744 8.55018 7.43417 8.21239 7.49899 7.8865C7.56382 7.56062 7.72382 7.26127 7.95877 7.02632C8.19373 6.79136 8.49307 6.63136 8.81896 6.56654C9.14485 6.50171 9.48264 6.53498 9.78962 6.66214C10.0966 6.78929 10.359 7.00462 10.5436 7.2809C10.7282 7.55717 10.8267 7.88198 10.8267 8.21426C10.8257 8.65952 10.6484 9.08626 10.3336 9.40111C10.0187 9.71595 9.59197 9.89327 9.14671 9.89426ZM9.14671 7.28092C8.96212 7.28092 8.78167 7.33566 8.62818 7.43822C8.47469 7.54077 8.35507 7.68654 8.28443 7.85708C8.21378 8.02763 8.1953 8.21529 8.23131 8.39634C8.26733 8.57739 8.35622 8.74369 8.48675 8.87422C8.61728 9.00475 8.78358 9.09364 8.96463 9.12966C9.14568 9.16567 9.33334 9.14719 9.50388 9.07654C9.67443 9.0059 9.8202 8.88627 9.92275 8.73279C10.0253 8.5793 10.08 8.39885 10.08 8.21426C10.08 7.96672 9.98171 7.72932 9.80668 7.55429C9.63165 7.37926 9.39425 7.28092 9.14671 7.28092Z" fill="white"/>
<path d="M22.8071 20.5348H11.5735V19.7881H22.7735V11.5748H14.5602V10.8281H22.8071C22.9939 10.8271 23.1736 10.8999 23.3072 11.0306C23.4407 11.1613 23.5172 11.3394 23.5202 11.5263V19.8367C23.5172 20.0235 23.4407 20.2016 23.3072 20.3323C23.1736 20.463 22.9939 20.5358 22.8071 20.5348Z" fill="white"/>
<path d="M12.8801 16.9867C12.5847 16.9867 12.296 16.8991 12.0504 16.735C11.8048 16.5709 11.6134 16.3377 11.5004 16.0648C11.3874 15.7919 11.3578 15.4917 11.4154 15.202C11.473 14.9123 11.6153 14.6462 11.8241 14.4374C12.033 14.2285 12.299 14.0863 12.5887 14.0287C12.8784 13.9711 13.1787 14.0006 13.4515 14.1137C13.7244 14.2267 13.9576 14.4181 14.1217 14.6637C14.2858 14.9093 14.3734 15.198 14.3734 15.4933C14.3734 15.8894 14.2161 16.2692 13.936 16.5493C13.6559 16.8293 13.2761 16.9867 12.8801 16.9867ZM12.8801 14.7467C12.7324 14.7467 12.588 14.7905 12.4652 14.8725C12.3424 14.9545 12.2467 15.0712 12.1902 15.2076C12.1337 15.344 12.1189 15.4942 12.1477 15.639C12.1765 15.7838 12.2477 15.9169 12.3521 16.0213C12.4565 16.1257 12.5895 16.1968 12.7344 16.2257C12.8792 16.2545 13.0294 16.2397 13.1658 16.1832C13.3022 16.1267 13.4188 16.031 13.5009 15.9082C13.5829 15.7854 13.6267 15.641 13.6267 15.4933C13.6267 15.2953 13.5481 15.1054 13.408 14.9654C13.268 14.8253 13.0781 14.7467 12.8801 14.7467Z" fill="white"/>
<path d="M16.6135 16.9867C16.3181 16.9867 16.0294 16.8991 15.7838 16.735C15.5382 16.5709 15.3468 16.3377 15.2338 16.0648C15.1208 15.7919 15.0912 15.4917 15.1488 15.202C15.2064 14.9123 15.3487 14.6462 15.5575 14.4374C15.7664 14.2285 16.0324 14.0863 16.3221 14.0287C16.6118 13.9711 16.9121 14.0006 17.1849 14.1137C17.4578 14.2267 17.691 14.4181 17.8551 14.6637C18.0192 14.9093 18.1068 15.198 18.1068 15.4933C18.1068 15.8894 17.9494 16.2692 17.6694 16.5493C17.3893 16.8293 17.0095 16.9867 16.6135 16.9867ZM16.6135 14.7467C16.4658 14.7467 16.3214 14.7905 16.1986 14.8725C16.0758 14.9545 15.9801 15.0712 15.9236 15.2076C15.8671 15.344 15.8523 15.4942 15.8811 15.639C15.9099 15.7838 15.9811 15.9169 16.0855 16.0213C16.1899 16.1257 16.3229 16.1968 16.4678 16.2257C16.6126 16.2545 16.7628 16.2397 16.8992 16.1832C17.0356 16.1267 17.1522 16.031 17.2343 15.9082C17.3163 15.7854 17.3601 15.641 17.3601 15.4933C17.3601 15.2953 17.2815 15.1054 17.1414 14.9654C17.0014 14.8253 16.8115 14.7467 16.6135 14.7467Z" fill="white"/>
<path d="M14.1868 17.9199H11.5735V18.6666H14.1868V17.9199Z" fill="white"/>
<path d="M17.92 17.9199H15.3066V18.6666H17.92V17.9199Z" fill="white"/>
<path d="M21.6534 17.9199H19.04V18.6666H21.6534V17.9199Z" fill="white"/>
<defs>
<linearGradient id="paint0_linear" x1="-5.79758" y1="33.801" x2="33.8004" y2="-5.79702" gradientUnits="userSpaceOnUse">
<stop stop-color="#BD0816"/>
<stop offset="1" stop-color="#FF5252"/>
</linearGradient>
</defs>
</svg>
